build/img/nо-logo-big.svg

<svg width="72" height="81" viewBox="0 0 72 81" fill="none" xmlns="http://www.w3.org/2000/svg">
<rect width="72" height="81" fill="black" fill-opacity="0"/>
<path d="M35.4134 80.7874C34.7285 80.5376 34.0095 80.2674 33.2159 79.9624C32.3453 79.6222 31.5825 79.3156 30.8745 79.0224C29.8998 78.6165 29.0579 78.2522 28.2974 77.9074C27.5795 77.589 26.8431 77.2494 26.0589 76.8745C25.2119 76.4663 24.3854 76.0538 23.5967 75.6459C22.8563 75.2606 22.1356 74.8722 21.451 74.4893C20.6438 74.0372 19.8568 73.578 19.1107 73.1244C18.3712 72.6755 17.7057 72.2544 17.0777 71.8376C16.2864 71.3161 15.5651 70.819 14.8765 70.321C14.2613 69.8793 13.6393 69.41 12.9797 68.8902C12.2618 68.3248 11.5718 67.752 10.9301 67.188C10.3172 66.6527 9.72816 66.1097 9.18349 65.5785C8.53756 64.9554 7.90955 64.3091 7.32478 63.6643C6.77954 63.0651 6.25477 62.452 5.76699 61.8445C5.18932 61.1225 4.64379 60.3844 4.14406 59.6486C3.68301 58.9728 3.25296 58.2835 2.83059 57.5451C2.35162 56.6998 1.91759 55.8303 1.53731 54.9554C1.15391 54.0679 0.838198 53.2045 0.596722 52.3852C0.0511964 50.5267 0.00426632 49.3704 0.000568807 49.245L0 15.3467C0 13.4182 0.994916 10.5617 2.83827 9.06601C5.72546 6.73102 9.52167 4.79763 14.1234 3.31717C15.5495 2.85792 17.0834 2.43539 18.6818 2.06104C20.1378 1.71768 21.6891 1.4073 23.2906 1.13881C24.5327 0.931414 25.8197 0.748401 27.1164 0.594074C28.4325 0.434583 29.7639 0.30636 31.1831 0.202519C32.3376 0.118184 33.5026 0.0570839 34.6463 0.0209403C35.3289 0.00172111 35.7729 0 35.9347 0H36.0257C36.2476 0 37.0701 0.00430276 38.3449 0.0590918C39.3447 0.100399 40.3868 0.164367 41.44 0.248989C42.5638 0.339635 43.6904 0.452081 44.7891 0.5826C45.7809 0.699062 46.7559 0.831302 47.6846 0.975015C48.746 1.13709 49.8055 1.32211 50.8295 1.52348C51.8127 1.71768 52.7007 1.91131 53.5457 2.11555C54.5187 2.34474 55.5105 2.60635 56.4841 2.89034C57.3194 3.1333 58.1696 3.40467 59.0092 3.69668C59.9532 4.02456 60.8639 4.37394 61.7158 4.73595C61.8842 4.80394 62.0523 4.87565 62.2169 4.95425L62.4186 5.05006C63.8248 5.65589 65.1937 6.37245 66.4918 7.18167C67.2171 7.62887 67.9091 8.10161 68.5414 8.58209C68.7433 8.7324 68.9552 8.89877 69.1606 9.06543C69.7502 9.5419 70.2801 10.1836 70.7335 10.9713C71.2332 11.8238 71.624 12.8401 71.8274 13.822C71.9403 14.3338 72 14.8544 72 15.3467L71.9992 49.2433C71.9943 49.4197 71.9252 51.0413 71.0065 53.5851C69.9928 56.3928 68.3636 59.1994 66.165 61.9274C64.5159 63.9704 62.5398 65.9646 60.2905 67.8552C57.4127 70.2714 54.0335 72.5585 50.2458 74.6539C47.9892 75.9 45.571 77.0899 43.0573 78.1914C41.3061 78.9616 39.465 79.7089 37.5872 80.4122C37.2539 80.537 36.9183 80.6609 36.5801 80.7854L35.9976 81L35.4134 80.7874Z" fill="#C4C4C4"/>
<path d="M71 14.8987V49.4257C71 49.4257 70.9594 50.9004 70.0914 53.3027C69.3366 55.3919 67.9578 58.1775 65.4352 61.3054C63.9489 63.1458 62.062 65.1063 59.6759 67.1109C57.0226 69.3373 53.7453 71.6196 49.7016 73.8554C47.5331 75.0521 45.1412 76.2398 42.5083 77.3929C40.7839 78.1508 38.9522 78.8969 37.0131 79.6225C36.6764 79.7484 36.3367 79.8739 35.9942 80C35.2394 79.725 34.5021 79.4467 33.7793 79.169C32.9781 78.8559 32.1943 78.5425 31.4309 78.2265C30.5455 77.8579 29.6862 77.4892 28.8531 77.1117C28.0809 76.7694 27.3291 76.4212 26.6005 76.073C25.7499 75.6633 24.9284 75.2534 24.1359 74.8441C23.3986 74.4608 22.6874 74.0774 21.9965 73.6912C21.1866 73.2377 20.4086 72.7841 19.6626 72.3309C18.963 71.9066 18.2895 71.4824 17.6451 71.0552C16.8816 70.5519 16.153 70.0515 15.4563 69.5483C14.8003 69.0775 14.1762 68.6032 13.5782 68.1321C12.8641 67.5703 12.1906 67.0114 11.5578 66.4555C10.9511 65.9256 10.3792 65.3992 9.84217 64.8754C9.18612 64.2434 8.57941 63.6172 8.01916 62.9998C7.47051 62.3971 6.96541 61.806 6.49805 61.224C5.91457 60.4955 5.39205 59.7844 4.92469 59.0968C4.44572 58.3949 4.0277 57.7157 3.65613 57.0664C3.15684 56.1854 2.75334 55.3574 2.42241 54.5969C2.03052 53.6898 1.74314 52.8793 1.53703 52.18C1.02903 50.4498 1 49.4257 1 49.4257V14.8987C1 13.2835 1.9115 10.9427 3.24683 9.8601C6.32098 7.37591 10.1992 5.58782 14.2023 4.30067C15.7031 3.81787 17.2184 3.40823 18.7192 3.05711C20.2838 2.68814 21.8281 2.38705 23.3144 2.13805C24.6468 1.91567 25.9328 1.73718 27.1375 1.5941C28.6354 1.41269 30.0114 1.28979 31.2103 1.20201C32.6559 1.09668 33.8432 1.04693 34.6734 1.0206C35.5007 0.997191 35.9739 1.00012 36 1.00012C36.0348 1.00012 36.8883 0.997191 38.3194 1.05864C39.167 1.09375 40.2121 1.15198 41.4139 1.24854C42.4299 1.33046 43.5591 1.43873 44.7667 1.58239C45.6898 1.69066 46.6594 1.8194 47.6609 1.97448C48.6769 2.12956 49.7306 2.31097 50.8018 2.52165C51.6901 2.69721 52.5928 2.89033 53.5015 3.10978C54.471 3.33801 55.4493 3.5955 56.4217 3.87932C57.2578 4.12218 58.0909 4.38845 58.9153 4.6752C59.8181 4.98828 60.7093 5.3277 61.5831 5.6993C61.7282 5.75782 61.8734 5.81927 62.0156 5.88686L62.0359 5.90705C63.499 6.52181 64.8894 7.24424 66.2044 8.06353C66.8837 8.48224 67.5398 8.9267 68.1639 9.40072C68.3642 9.54994 68.5616 9.70502 68.7532 9.8601C69.206 10.2259 69.6095 10.7379 69.9434 11.317C70.3759 12.0546 70.6952 12.9029 70.8607 13.7017C70.9536 14.1233 71 14.53 71 14.8987Z" fill="#F4F4F4"/>
<path d="M55.7936 36.0429C55.7812 35.4596 55.7423 34.8771 55.6794 34.3002C55.1411 29.3547 52.798 24.7431 49.1125 21.4304C47.236 19.7432 45.0105 18.3917 42.4971 17.5066C35.4676 15.0287 27.9778 16.8226 22.7873 21.5284C21.022 23.129 19.5231 25.0674 18.3974 27.2873L18.3882 27.2841C18.3807 27.3055 18.3746 27.3265 18.3668 27.3482C17.9602 28.1587 17.6002 29.0058 17.2962 29.8904C16.797 31.3483 16.4731 32.8267 16.3157 34.3002C16.2526 34.8824 16.2157 35.4628 16.2033 36.0418C16.1754 37.3447 16.2757 38.6372 16.4932 39.9024L16.5486 40.2144C17.8345 47.0425 22.5789 53.0166 29.5024 55.4574C31.5852 56.191 33.7084 56.5513 35.7993 56.5703C35.8664 56.5715 35.9336 56.5715 35.9993 56.5715C44.1914 56.5636 51.8657 51.3572 54.7013 43.0751C54.7831 42.8394 54.8583 42.6028 54.9292 42.3648C54.9644 42.2508 54.9975 42.135 55.0298 42.0212C55.0373 41.9975 55.0439 41.9756 55.048 41.9537C55.5973 39.9887 55.8379 37.9997 55.7936 36.0429ZM39.4594 18.0566C40.3324 18.2238 41.2039 18.4607 42.0671 18.7645C43.7894 19.3724 45.3667 20.2134 46.776 21.2435C46.7956 21.2579 46.8144 21.2719 46.8345 21.2857C46.7852 21.3403 46.736 21.3962 46.6867 21.4512C46.5558 21.369 46.423 21.2874 46.2887 21.209C44.4367 20.1169 42.2879 19.3692 40.701 18.9136C39.4136 18.5449 38.4948 18.3651 38.4035 18.3472L38.4012 18.366L37.4553 17.7832C38.1236 17.8364 38.7902 17.9271 39.4594 18.0566ZM38.2585 19.1335C38.2914 19.1394 40.1134 19.4947 42.2783 20.2625C42.9432 20.4973 43.6404 20.7725 44.328 21.0886C45.2624 21.517 46.1786 22.0211 46.9691 22.6062C47.8432 23.5822 49.2015 25.2487 49.5056 26.4967C48.7761 27.0367 47.9063 27.6657 47.0922 28.24C46.4959 28.659 45.9267 29.0517 45.463 29.3547C44.2292 28.5979 39.9508 26.8616 38.3516 26.7958C37.4397 24.482 35.8105 21.9447 35.0967 20.8824C35.0889 20.8713 35.0811 20.8605 35.0733 20.8494C35.8223 20.2842 38.2585 19.1335 38.2585 19.1335ZM45.3707 35.2096C45.3707 35.2096 44.6263 30.7816 44.3721 30.6524C42.5256 29.714 39.1859 28.4362 38.5986 28.8927C36.2307 30.7369 36.3901 31.0574 35.7676 31.4015C35.7676 31.4015 38.3715 27.7131 38.9588 27.8397C40.2445 28.1169 44.5108 29.8082 44.8462 30.3486C45.1823 30.891 45.3707 35.2096 45.3707 35.2096ZM34.3652 21.2158C35.0209 22.1869 36.7659 24.872 37.6634 27.2069C36.806 28.4289 34.0436 32.3849 33.2951 33.6352C30.7284 33.7964 26.4789 33.9168 25.3883 33.9461C24.7762 33.0642 23.4014 31.0056 22.9435 29.7363C24.2401 25.8428 26.8106 22.834 27.5876 21.983C29.032 21.614 32.3469 20.8678 34.3652 21.2158ZM24.1153 33.9902C23.9216 33.439 22.0039 30.6202 21.7964 30.6176C21.5889 30.6152 19.956 31.4311 19.956 31.4311C19.956 31.4311 21.9803 29.6784 22.1633 29.9538C22.3466 30.2296 24.6672 33.7964 24.6223 34.1329C24.5761 34.4692 24.0839 36.5163 24.0839 36.5163C24.0839 36.5163 24.2194 34.287 24.1153 33.9902ZM25.1249 21.3251C25.569 20.9965 26.0284 20.69 26.4984 20.4038L26.6714 21.209L26.7743 21.6971C25.7987 22.8003 23.6014 25.5376 22.3262 29.1067C21.5549 29.5164 20.0675 30.3801 19.1234 31.3939C18.9493 30.9676 18.7891 30.3939 18.7706 29.6895C20.0949 26.2247 22.3417 23.3726 25.1249 21.3251ZM18.5761 39.5846C18.4556 40.0059 18.2876 40.6296 18.1383 41.2928C17.9994 40.7677 17.8838 40.2352 17.7916 39.6989C17.5829 38.4974 17.489 37.269 17.5169 36.0303C17.5305 35.4546 17.5708 34.8768 17.6371 34.3002C17.7541 33.2879 17.9533 32.2764 18.2421 31.2699C18.3648 31.6588 18.513 31.9784 18.647 32.2223C18.5608 32.6343 18.4202 33.387 18.3204 34.3002C18.2619 34.8324 18.2187 35.4186 18.2063 36.0242C18.1861 37.1628 18.2853 38.3676 18.6288 39.4068C18.6133 39.4618 18.5942 39.5205 18.5761 39.5846ZM22.6302 49.4311C20.8661 47.5495 19.5107 45.3199 18.638 42.9005C18.7444 42.1145 18.9876 41.0645 19.2317 40.1712C19.8762 40.5109 21.2221 41.1525 22.5466 41.3668C22.5204 41.3221 22.5034 41.2905 22.4959 41.2779L22.9939 41.4212L23.1216 40.6691C23.1248 40.6741 23.151 40.7212 23.1974 40.8036C23.3545 40.334 23.5891 39.6398 23.8525 38.8796C24.1902 37.9097 24.5776 36.8318 24.918 35.9701C25.1171 35.466 25.3024 35.037 25.45 34.7449C26.5915 34.7131 30.6921 34.5949 33.2536 34.4382C33.4418 34.8011 33.7995 35.316 34.2467 35.8941C34.6952 36.4748 35.2333 37.1213 35.7806 37.7439C35.7869 37.7497 35.7929 37.7579 35.7996 37.7643C35.8656 37.8392 35.9316 37.9143 35.9996 37.9892C36.9262 39.0293 37.847 39.9685 38.3623 40.372C37.9965 41.2791 36.9253 43.9306 35.9996 46.1959C35.9316 46.3617 35.8644 46.5264 35.7996 46.686C35.6408 47.0729 35.4895 47.4398 35.3488 47.7808C34.6107 48.0279 32.4902 48.5709 28.7453 48.282C26.6835 46.8313 23.7098 41.7031 23.1974 40.8036C23.0712 41.1867 22.9939 41.4212 22.9939 41.4212C22.8458 41.4089 22.6968 41.3902 22.5466 41.3668C22.9743 42.1081 25.7771 46.9112 27.9957 48.7065C27.9836 49.2589 27.9651 50.1867 27.9651 51.0063C27.9651 51.4221 27.9691 51.8105 27.9815 52.1058C26.6561 52.0883 25.3451 51.5806 24.5248 51.1885C23.8496 50.6452 23.2176 50.0569 22.6302 49.4311ZM29.9324 54.1994C28.8623 53.8225 27.8461 53.3535 26.8921 52.8055C27.4608 52.9023 28.0559 52.9383 28.6496 52.8766C29.8894 53.3401 32.7106 54.3699 34.2263 54.6661C34.3534 54.8354 34.558 55.0272 34.8845 55.2053C33.2337 55.105 31.5699 54.7767 29.9324 54.1994ZM31.1578 49.2285C31.3786 49.2601 34.9621 48.7373 35.2555 49.0285C35.5491 49.3206 37.6409 51.3262 37.6409 51.3262C37.6409 51.3262 35.5301 49.713 34.9301 49.5718C34.3303 49.4311 31.1578 49.2285 31.1578 49.2285ZM38.3404 55.0831C37.2749 55.0553 36.5261 54.9346 35.9996 54.7866C35.929 54.7661 35.8624 54.7459 35.7996 54.7249C35.6004 54.6579 35.4408 54.5889 35.3105 54.5205C35.4526 54.4573 35.6174 54.3825 35.7996 54.2983C35.8644 54.2699 35.9307 54.2389 35.9996 54.2073C36.9927 53.7494 38.3729 53.0807 39.1943 52.5538C39.9935 52.4976 44.7779 52.0692 48.2041 49.5999L48.8424 49.9695C45.9794 52.7669 42.2835 54.567 38.3404 55.0831ZM48.4473 48.3905C45.5532 50.9186 40.946 51.5757 39.4981 51.7225C38.9773 51.3599 37.9965 50.6297 37.1129 49.7037C36.7019 49.2729 36.3111 48.8004 35.9996 48.3027C35.9967 48.2981 35.995 48.2954 35.9918 48.2905C35.995 48.2837 35.997 48.2782 35.9996 48.2717C37.0821 45.6544 38.8908 41.1662 39.1854 40.4405C40.5238 40.101 44.1211 39.1626 45.5486 38.5302C45.865 38.8041 46.2547 39.1477 46.6803 39.5299C47.9493 40.672 49.5309 42.156 50.3981 43.1686C50.1315 45.1491 49.1151 47.208 48.4473 48.3905ZM53.4018 38.9854C53.3369 39.5586 53.2505 40.1445 53.1384 40.7364C53.1384 40.7364 51.4285 42.1124 50.8134 42.4426C49.7678 41.2615 48.0943 39.7238 46.9593 38.7135C46.6264 38.4173 46.3414 38.1658 46.1302 37.9825C46.1287 37.8851 46.1287 37.7523 46.1255 37.5868C46.1206 37.193 46.1132 36.6216 46.1019 35.9628C46.093 35.4485 46.0838 34.8783 46.0699 34.2999C46.0296 32.6136 45.9685 30.8395 45.8739 30.0336C46.3057 29.752 46.802 29.4143 47.3063 29.0625C48.2899 28.3742 49.3001 27.6353 49.9093 27.1862C50.6878 28.0029 53.0917 30.8971 53.0917 30.8971C53.0977 30.9237 53.3905 32.2694 53.5113 34.2999C53.5433 34.8321 53.5634 35.409 53.5634 36.0239C53.5637 36.9435 53.5188 37.9439 53.4018 38.9854ZM54.2425 39.5205C54.1762 39.9287 54.0972 40.3358 54.0032 40.7437C53.986 40.708 53.9707 40.6753 53.9554 40.6434C54.0277 40.2369 54.0897 39.8355 54.1404 39.4398C54.2958 38.2319 54.3543 37.0789 54.3563 36.0303C54.3577 35.414 54.3376 34.8356 54.3067 34.3002C54.2914 34.0297 54.2727 33.77 54.2514 33.5241C54.2914 33.7823 54.3272 34.0408 54.3577 34.3002C54.4243 34.8724 54.4658 35.4502 54.4794 36.0327C54.509 37.1865 54.4318 38.3538 54.2425 39.5205Z" fill="#B4B4B4"/>
</svg>

<svg width="72" height="81" fill="none" xmlns="http://www.w3.org/2000/svg"><path d="M0 0h72v81H0z"/><path d="M35.413 80.787c-.684-.25-1.403-.52-2.197-.825-.87-.34-1.634-.646-2.341-.94a90.384 90.384 0 0 1-2.578-1.115 86.07 86.07 0 0 1-4.7-2.261 76.263 76.263 0 0 1-4.486-2.522 59.29 59.29 0 0 1-2.033-1.286 61.164 61.164 0 0 1-2.201-1.517 52.809 52.809 0 0 1-1.897-1.43 49.696 49.696 0 0 1-3.797-3.313 40.232 40.232 0 0 1-3.416-3.734 35.073 35.073 0 0 1-1.623-2.195 31.086 31.086 0 0 1-1.313-2.104 27.531 27.531 0 0 1-1.294-2.59 22.73 22.73 0 0 1-.94-2.57C.05 50.527.004 49.37 0 49.245V15.347c0-1.929.995-4.785 2.838-6.281 2.887-2.335 6.684-4.268 11.285-5.749a57.96 57.96 0 0 1 4.559-1.256 72.21 72.21 0 0 1 4.609-.922 81.474 81.474 0 0 1 3.825-.545 85.221 85.221 0 0 1 7.53-.573C35.33 0 35.773 0 35.935 0h.09c.223 0 1.045.004 2.32.06 1 .04 2.042.104 3.095.189a89.558 89.558 0 0 1 6.245.726c1.061.162 2.12.347 3.145.548.983.195 1.87.388 2.716.593.973.229 1.965.49 2.938.774.835.243 1.686.515 2.525.807a43.185 43.185 0 0 1 3.208 1.257l.202.096a30.63 30.63 0 0 1 4.073 2.132 25.7 25.7 0 0 1 2.669 1.883c.59.477 1.12 1.119 1.573 1.906.5.853.89 1.87 1.093 2.851.113.512.173 1.032.173 1.525v33.896c-.006.177-.075 1.798-.993 4.342-1.014 2.808-2.643 5.614-4.842 8.342-1.65 2.043-3.625 4.038-5.875 5.928-2.877 2.416-6.257 4.703-10.044 6.799a87.98 87.98 0 0 1-7.189 3.537 106 106 0 0 1-6.477 2.594l-.582.215-.585-.213z" fill="#C4C4C4"/><path d="M71 14.899v34.527s-.04 1.474-.909 3.877c-.754 2.089-2.133 4.875-4.656 8.002-1.486 1.84-3.373 3.801-5.76 5.806-2.652 2.226-5.93 4.509-9.973 6.744a87.685 87.685 0 0 1-7.194 3.538 105.906 105.906 0 0 1-5.495 2.23L35.994 80c-.755-.275-1.492-.553-2.215-.831-.8-.313-1.585-.626-2.348-.942a90.881 90.881 0 0 1-2.578-1.115 86.847 86.847 0 0 1-4.717-2.268 76.199 76.199 0 0 1-4.473-2.513c-.7-.424-1.373-.849-2.018-1.276a62.268 62.268 0 0 1-2.189-1.507 52.45 52.45 0 0 1-1.878-1.416 48.489 48.489 0 0 1-3.736-3.257 38.96 38.96 0 0 1-3.344-3.651 33.785 33.785 0 0 1-1.573-2.127 30.206 30.206 0 0 1-1.269-2.03c-.5-.882-.903-1.71-1.234-2.47a21.346 21.346 0 0 1-.885-2.417C1.029 50.45 1 49.426 1 49.426V14.899c0-1.615.911-3.956 2.247-5.039C6.32 7.376 10.199 5.588 14.202 4.3a57.65 57.65 0 0 1 4.517-1.243 71.568 71.568 0 0 1 4.595-.919c1.333-.222 2.619-.4 3.823-.544a86.196 86.196 0 0 1 7.536-.573C35.501.997 35.973 1 36 1c.035 0 .888-.004 2.32.058.847.035 1.892.093 3.094.19a88.98 88.98 0 0 1 6.247.725c1.016.156 2.07.337 3.14.548.89.175 1.792.368 2.7.588.97.228 1.948.486 2.92.77.837.242 1.67.508 2.494.795a41.872 41.872 0 0 1 3.1 1.212l.02.02a29.449 29.449 0 0 1 4.17 2.157 24.44 24.44 0 0 1 2.548 1.796c.453.366.856.878 1.19 1.457a8.08 8.08 0 0 1 .918 2.385c.093.421.139.828.139 1.197z" fill="#F4F4F4"/><path d="M55.794 36.043a20.019 20.019 0 0 0-.115-1.743c-.538-4.945-2.881-9.557-6.567-12.87a19.62 19.62 0 0 0-6.615-3.923c-7.03-2.478-14.52-.684-19.71 4.021a19.933 19.933 0 0 0-4.39 5.76l-.009-.004c-.007.021-.013.043-.021.064a20.245 20.245 0 0 0-1.874 12.554l.056.312c1.285 6.828 6.03 12.803 12.953 15.243A19.459 19.459 0 0 0 36 56.571c8.192-.007 15.867-5.214 18.702-13.496.082-.236.157-.472.228-.71a15.669 15.669 0 0 0 .119-.411c.55-1.965.79-3.954.746-5.911zM39.459 18.057a18.27 18.27 0 0 1 7.317 3.187l.059.042c-.05.054-.099.11-.148.165a14.534 14.534 0 0 0-.398-.242c-1.852-1.092-4.001-1.84-5.588-2.295-1.287-.37-2.206-.549-2.297-.567l-.003.019-.946-.583a17.89 17.89 0 0 1 2.004.274zm-1.2 1.077c.032.005 1.854.36 4.02 1.128.664.235 1.361.51 2.049.827.934.428 1.85.932 2.641 1.517.874.976 2.233 2.643 2.537 3.89-.73.54-1.6 1.17-2.414 1.744a62 62 0 0 1-1.629 1.115c-1.234-.757-5.512-2.493-7.111-2.56-.912-2.313-2.541-4.85-3.255-5.913l-.024-.033c.75-.565 3.185-1.715 3.185-1.715zM45.37 35.21s-.745-4.428-.999-4.558c-1.846-.938-5.186-2.216-5.773-1.76-2.368 1.845-2.209 2.165-2.831 2.51 0 0 2.603-3.689 3.19-3.562 1.287.277 5.553 1.968 5.888 2.509.336.542.525 4.86.525 4.86zM34.365 21.216c.656.97 2.4 3.656 3.298 5.99-.857 1.223-3.62 5.179-4.368 6.43-2.567.16-6.816.28-7.907.31-.612-.882-1.987-2.94-2.445-4.21 1.297-3.893 3.868-6.902 4.645-7.753 1.444-.369 4.759-1.115 6.777-.767zM24.115 33.99c-.193-.551-2.111-3.37-2.319-3.372-.207-.003-1.84.813-1.84.813s2.024-1.753 2.207-1.477c.184.276 2.504 3.842 2.46 4.179-.047.336-.54 2.383-.54 2.383s.136-2.229.032-2.526zm1.01-12.665c.444-.328.903-.635 1.373-.921l.173.805.103.488c-.975 1.103-3.173 3.84-4.448 7.41-.771.41-2.259 1.273-3.203 2.287-.174-.426-.334-1-.352-1.704a18.59 18.59 0 0 1 6.354-8.365zm-6.549 18.26c-.12.42-.288 1.045-.438 1.708a18.943 18.943 0 0 1-.501-6.993c.117-1.012.316-2.024.605-3.03a5.3 5.3 0 0 0 .405.952 22.198 22.198 0 0 0-.327 2.078 19.561 19.561 0 0 0-.114 1.724c-.02 1.139.08 2.344.423 3.383-.016.055-.035.114-.053.178zm4.054 9.846a18.954 18.954 0 0 1-3.992-6.53c.106-.787.35-1.837.594-2.73.644.34 1.99.982 3.315 1.196a1.565 1.565 0 0 1-.051-.09l.498.144.128-.752.075.135c.158-.47.392-1.164.655-1.924a80.48 80.48 0 0 1 1.066-2.91c.2-.504.384-.933.532-1.225 1.142-.032 5.242-.15 7.804-.307.188.363.546.878.993 1.456.448.58.986 1.227 1.534 1.85l.019.02.2.225c.926 1.04 1.847 1.98 2.362 2.383a1548.953 1548.953 0 0 1-2.562 6.314l-.451 1.095c-.738.247-2.859.79-6.604.501-2.062-1.45-5.035-6.579-5.548-7.478l-.203.617a6.289 6.289 0 0 1-.447-.054c.427.741 3.23 5.544 5.449 7.34-.012.552-.03 1.48-.03 2.3 0 .415.003.803.015 1.099-1.325-.018-2.636-.525-3.456-.918a18.542 18.542 0 0 1-1.895-1.757zm7.302 4.768a18.323 18.323 0 0 1-3.04-1.393 6.5 6.5 0 0 0 1.758.07c1.24.464 4.06 1.494 5.576 1.79.127.17.332.361.659.54a18.24 18.24 0 0 1-4.953-1.007zm1.226-4.97c.22.031 3.804-.492 4.097-.2.294.292 2.386 2.297 2.386 2.297s-2.11-1.613-2.71-1.754c-.6-.14-3.773-.344-3.773-.344zm7.182 5.854c-1.065-.028-1.814-.148-2.34-.296a4.034 4.034 0 0 1-.2-.062 3.34 3.34 0 0 1-.49-.205c.143-.063.307-.138.49-.222.064-.028.13-.06.2-.09.993-.459 2.373-1.127 3.194-1.654.8-.056 5.584-.485 9.01-2.954l.638.37a18.493 18.493 0 0 1-10.502 5.113zm10.107-6.692c-2.894 2.528-7.501 3.185-8.949 3.331-.52-.362-1.502-1.092-2.385-2.018A8.953 8.953 0 0 1 36 48.303l-.008-.012.008-.02c1.082-2.617 2.89-7.105 3.185-7.83 1.339-.34 4.936-1.278 6.364-1.91.316.273.706.617 1.131.999 1.27 1.142 2.85 2.626 3.718 3.639-.267 1.98-1.283 4.039-1.95 5.222zm4.955-9.406a23.27 23.27 0 0 1-.264 1.751s-1.71 1.376-2.325 1.707c-1.045-1.181-2.719-2.72-3.854-3.73a95.731 95.731 0 0 0-.829-.73c-.001-.098-.001-.23-.005-.396a339.83 339.83 0 0 0-.023-1.624c-.009-.514-.018-1.085-.032-1.663-.04-1.686-.102-3.46-.196-4.266.432-.282.928-.62 1.432-.971a136.44 136.44 0 0 0 2.603-1.877c.779.817 3.183 3.711 3.183 3.711.006.027.299 1.372.42 3.403.031.532.051 1.109.051 1.724 0 .92-.044 1.92-.161 2.961zm.84.535a18.74 18.74 0 0 1-.239 1.224c-.017-.036-.032-.069-.048-.1.073-.407.135-.808.185-1.204a27.19 27.19 0 0 0 .216-3.41 28.828 28.828 0 0 0-.105-2.506 18.771 18.771 0 0 1 .228 2.509 18.767 18.767 0 0 1-.236 3.488z" fill="#B4B4B4"/></svg>
